src/frontend/src/images/status-error.svg

<svg width="48" height="48" viewBox="0 0 48 48" fill="none" xmlns="http://www.w3.org/2000/svg">
<rect width="48" height="48" rx="8" fill="#F8BA47"/>
<path d="M24 38C18.9688 38 14.375 35.375 11.8594 31C9.34375 26.6797 9.34375 21.375 11.8594 17C14.375 12.6797 18.9688 10 24 10C28.9766 10 33.5703 12.6797 36.0859 17C38.6016 21.375 38.6016 26.6797 36.0859 31C33.5703 35.375 28.9766 38 24 38ZM24 17C23.2344 17 22.6875 17.6016 22.6875 18.3125V24.4375C22.6875 25.2031 23.2344 25.75 24 25.75C24.7109 25.75 25.3125 25.2031 25.3125 24.4375V18.3125C25.3125 17.6016 24.7109 17 24 17ZM22.25 29.25C22.25 30.2344 23.0156 31 24 31C24.9297 31 25.75 30.2344 25.75 29.25C25.75 28.3203 24.9297 27.5 24 27.5C23.0156 27.5 22.25 28.3203 22.25 29.25Z" fill="#584215"/>
</svg>

<svg xmlns="http://www.w3.org/2000/svg" width="48" height="48" fill="none" viewBox="0 0 48 48"><rect width="48" height="48" fill="#f8ba47" rx="8"/><path fill="#584215" d="M24 38c-5.03 0-9.62-2.62-12.14-7a13.9 13.9 0 0 1 0-14c2.52-4.32 7.1-7 12.14-7a14.01 14.01 0 0 1 0 28m0-21c-.77 0-1.31.6-1.31 1.31v6.13c0 .76.54 1.31 1.31 1.31a1.3 1.3 0 0 0 1.31-1.31V18.3c0-.7-.6-1.31-1.31-1.31m-1.75 12.25c0 .98.77 1.75 1.75 1.75.93 0 1.75-.77 1.75-1.75A1.8 1.8 0 0 0 24 27.5c-.98 0-1.75.82-1.75 1.75"/></svg>
